resources/svg/major-note.svg

<svg xmlns="http://www.w3.org/2000/svg" viewBox="0 0 20 20" fill="currentColor"><path fill-rule="evenodd" d="M11.379 0a1.5 1.5 0 0 1 1.06.44l4.122 4.12a1.5 1.5 0 0 1 .439 1.062v12.878a1.5 1.5 0 0 1-1.5 1.5h-11a1.5 1.5 0 0 1-1.5-1.5v-17a1.5 1.5 0 0 1 1.5-1.5h6.879zm-5.379 5h4v2h-4v-2zm8 4v2h-8v-2h8zm-8 6v-2h7v2h-7z"/></svg>

<svg xmlns="http://www.w3.org/2000/svg" viewBox="0 0 20 20" fill="currentColor"><path fill-rule="evenodd" d="M11.379 0a1.5 1.5 0 011.06.44l4.122 4.12A1.5 1.5 0 0117 5.622V18.5a1.5 1.5 0 01-1.5 1.5h-11A1.5 1.5 0 013 18.5v-17A1.5 1.5 0 014.5 0h6.879zM6 5h4v2H6V5zm8 4v2H6V9h8zm-8 6v-2h7v2H6z" fill="#5C5F62"/></svg>
